X: 107
T: No_43_I_Will_Toss_Up_the_Sticks.krn
N: Derived from No_43_I_Will_Toss_Up_the_Sticks.krn
%%abc-version 2.0
%%abcx-abcm2ps-target-version 5.9.1 (29 Sep 2008)
%%abc-creator hum2abc beta
%%abcx-conversion-date 2019/03/15 08:37:56
%%humdrum-veritas 1285139719
%%humdrum-veritas-data 3958118720
%%linebreak <none>
%%barnumbers 0
L: 1/8
M: 2/4
K: G clef=bass
[K:clef=bass][M:2/4]E2FF ||  
[M:3/4]G4FE | 
E2B,2z2 ||  
[M:5/8]EECFE ||  
[M:3/4]F4EC | 
E2C2z2 | 
C2z2FE | 
F4EC | 
E2C2z2 ||  
[M:2/4]E4 ||  
[M:3/4]E2C z FE | 
E2C2E2 | 
E6 |]  



